X:80
T:Lachlan with the jet black hair
T:Lachlann Dubh
R:Slow Air
S:Simon Fraser Collection
N:No.115
O:Scottish
M:6/8
L:1/8
Q:3/8=50
K:E Minor
B|e>^de B>ef|g>eg f2 e/^d/|e>de Bef|g>ba/g/ f2e|
g>ab bag|b2 e/d/ B2g|B>AG/F/ G>AB/A/|G2 F E2:|
|:e/f/|g>fe Bef|g>eg f2e|g>fe Bef|g>ba/g/ f2e|
g>ab bag|b2 e/d/ B2g|1 B>AG/F/ G>AB/A/|
G2F E2:|2 B>AG/F/ G>AB/a/|g2f e2||

